X: 604
T:Dairy Maid, The
T:Matt Molloy's
R:reel
N:Posted to the woodenflute mailing list November 2002
Z:Dennis Gormley http://www.hslc.org/~gormley
M:4/4
L:1/8
K:D
dB|:AF ~F2 BFAD|DEFA B3 d|eB ~B2 egfe|dfed B2 dB
AF ~F2 BFAD|DEFA B3 d|eg ~g2 efdB|AFEF D2:|
|:(3ABc|dcde fefg|a2bf afef|eB ~B2 gB ~B2|fedf e2 dB
AF ~F2 ABdf|a2bf afef|g2 fg efdB|AFEF D2:|

